icon/lg/adobe-premiere.svg

<?xml version="1.0" encoding="UTF-8"?>
<svg viewBox="0 0 256 250" version="1.1" xmlns="http://www.w3.org/2000/svg" preserveAspectRatio="xMidYMid" height="1em" width="1em">
  <g>
    <path d="M45.3333333,0 L210.666667,0 C235.733333,0 256,20.2666667 256,45.3333333 L256,204.266667 C256,229.333333 235.733333,249.6 210.666667,249.6 L45.3333333,249.6 C20.2666667,249.6 0,229.333333 0,204.266667 L0,45.3333333 C0,20.2666667 20.2666667,0 45.3333333,0 Z" fill="#00005B"/>
    <path d="M60.8,175.04 L60.8,65.28 C60.8,64.5333333 61.12,64.1066667 61.8666667,64.1066667 L63.4147328,64.1041788 L63.4147328,64.1041788 L64.6133333,64.0933333 L64.6133333,64.0933333 L65.4582702,64.0783285 L65.4582702,64.0783285 L66.3573178,64.0549271 L66.3573178,64.0549271 L67.3254033,64.0212634 L67.3254033,64.0212634 L67.84,64 C68.8,63.96 69.775,63.935 70.770625,63.91375 L73.825,63.85 C74.1725,63.8416667 74.5229167,63.8325 74.8764583,63.8220833 L75.9466667,63.7866667 C76.9066667,63.7511111 77.8903704,63.7274074 78.8977778,63.7076543 L81.9911111,63.6523457 L81.9911111,63.6523457 L84.1323457,63.6052309 L84.1323457,63.6052309 L85.2266667,63.5733333 C87.4311111,63.5022222 89.5881481,63.4785185 91.7293827,63.4706173 L94.9333333,63.4666667 L94.9333333,63.4666667 C103.68,63.4666667 110.933333,64.5333333 116.906667,66.7733333 C122.24,68.5866667 127.146667,71.5733333 131.2,75.52 C134.613333,78.9333333 137.28,83.0933333 138.986667,87.68 C140.586667,92.16 141.44,96.7466667 141.44,101.546667 C141.44,110.72 139.306667,118.293333 135.04,124.266667 C130.773333,130.24 124.8,134.72 117.866667,137.28 C110.855111,139.857778 103.145837,140.84077 94.7388444,140.903439 L91.6899762,140.903308 L91.6899762,140.903308 L90.5026,140.891115 L90.5026,140.891115 L89.742046,140.8725 L89.742046,140.8725 L89.2941051,140.854181 L89.2941051,140.854181 L88.8916985,140.830263 L88.8916985,140.830263 L88.5333333,140.8 C88.32,140.778667 88.0896,140.7616 87.84128,140.747947 L87.3204938,140.724938 L87.3204938,140.724938 L86.750404,140.709515 L86.750404,140.709515 L85.7995062,140.697284 L85.7995062,140.697284 L83.9466667,140.693333 L83.9466667,140.693333 L83.9466667,174.933333 C84.0533333,175.68 83.52,176.32 82.7733333,176.426667 L62.08,176.426667 C61.2266667,176.426667 60.8,176 60.8,175.04 Z M84.0533333,84.6933333 L84.0533333,120.533333 L85.3072109,120.622274 C86.3303401,120.692245 87.2990476,120.746667 88.2133333,120.746667 L93.8666667,120.746667 C98.0266667,120.746667 102.186667,120.106667 106.133333,118.826667 C109.546667,117.866667 112.533333,115.84 114.88,113.173333 C117.12,110.506667 118.186667,106.88 118.186667,102.186667 C118.293333,98.88 117.44,95.5733333 115.733333,92.6933333 C113.995556,90.0355556 111.572037,87.9655556 108.65054,86.7649769 L108.266667,86.6133333 C104.32,85.0133333 100.053333,84.3733333 95.68,84.48 L93.2139948,84.4831073 L93.2139948,84.4831073 L92.0549841,84.490487 L92.0549841,84.490487 L90.9484084,84.5048581 L90.9484084,84.5048581 L89.8965984,84.5285511 C89.3847732,84.5431164 88.894359,84.5620513 88.4266667,84.5866667 C88.1896296,84.5748148 87.9604938,84.5655967 87.7394056,84.5587197 L87.1004298,84.5448194 C86.9980064,84.5435757 86.8976315,84.5428441 86.7993233,84.542588 L86.2344216,84.5464655 L86.2344216,84.5464655 L85.72,84.56 C85.6385185,84.562963 85.559177,84.5662551 85.4819936,84.56984 L85.0449383,84.5945679 L85.0449383,84.5945679 L84.6605578,84.6245633 C84.6009328,84.629904 84.5435391,84.6353909 84.4883951,84.6409877 L84.1846731,84.6755921 L84.1846731,84.6755921 L84.0533333,84.6933333 Z M156.373333,90.88 L175.04,90.88 C176.047407,90.88 176.864527,91.5460082 177.221783,92.4287334 L177.28,92.5866667 C177.6,93.44 177.813333,94.2933333 177.92,95.2533333 C178.133333,96.32 178.346667,97.4933333 178.453333,98.56 L178.542274,99.5918367 C178.612245,100.473469 178.666667,101.409524 178.666667,102.4 C181.721212,98.8363636 185.358898,95.8558678 189.486952,93.5512847 L190.08,93.2266667 C194.986667,90.4533333 200.64,89.0666667 206.293333,89.0666667 C207.04,88.96 207.68,89.4933333 207.786667,90.24 L207.786667,111.466667 C207.786667,112.32 207.253333,112.64 206.08,112.64 C202.496,112.540444 198.819081,112.812563 195.309416,113.54308 L194.56,113.706667 C191.466667,114.346667 188.48,115.306667 185.6,116.586667 C183.573333,117.546667 181.653333,118.826667 180.16,120.533333 L180.16,174.933333 C180.16,176 179.733333,176.426667 178.773333,176.426667 L157.76,176.426667 C156.906667,176.533333 156.16,176 156.053333,175.146667 L156.053333,115.626667 C156.053333,113.066667 156.053333,110.4 155.946667,107.626667 L155.883333,105.546667 L155.883333,105.546667 L155.796667,101.386667 C155.78,100.693333 155.76,100 155.733333,99.3066667 C155.733333,96.8533333 155.52,94.5066667 155.306667,92.0533333 C155.2,91.52 155.52,90.9866667 156.053333,90.88 C156.053333,90.7885714 156.210068,90.7755102 156.322021,90.8408163 L156.373333,90.88 Z" fill="#9999FF"/>
  </g>
</svg>

<svg width="256" height="250" xmlns="http://www.w3.org/2000/svg" preserveAspectRatio="xMidYMid"><path d="M45.333 0h165.334C235.733 0 256 20.267 256 45.333v158.934c0 25.066-20.267 45.333-45.333 45.333H45.333C20.267 249.6 0 229.333 0 204.267V45.333C0 20.267 20.267 0 45.333 0Z" fill="#00005B"/><path d="M60.8 175.04V65.28c0-.747.32-1.173 1.067-1.173l1.548-.003 1.198-.01.845-.016.9-.023.967-.034.515-.021c.96-.04 1.935-.065 2.93-.086l3.055-.064c.347-.008.698-.017 1.051-.028l1.07-.035c.96-.036 1.944-.06 2.952-.08l3.093-.055 2.141-.047 1.095-.032c2.204-.07 4.361-.094 6.502-.102l3.204-.004c8.747 0 16 1.066 21.974 3.306A38.09 38.09 0 0 1 131.2 75.52a33.963 33.963 0 0 1 7.787 12.16c1.6 4.48 2.453 9.067 2.453 13.867 0 9.173-2.133 16.746-6.4 22.72-4.267 5.973-10.24 10.453-17.173 13.013-7.012 2.578-14.721 3.56-23.128 3.623H91.69l-1.187-.012-.761-.018-.448-.019-.402-.024-.359-.03a15.594 15.594 0 0 0-.692-.052l-.52-.023-.57-.015-.951-.013-1.853-.004v34.24c.106.747-.427 1.387-1.174 1.494H62.08c-.853 0-1.28-.427-1.28-1.387Zm23.253-90.347v35.84l1.254.09c1.023.07 1.992.124 2.906.124h5.654c4.16 0 8.32-.64 12.266-1.92 3.414-.96 6.4-2.987 8.747-5.654 2.24-2.666 3.307-6.293 3.307-10.986a17.557 17.557 0 0 0-2.454-9.494c-1.737-2.657-4.161-4.727-7.082-5.928l-.384-.152c-3.947-1.6-8.214-2.24-12.587-2.133l-2.466.003-1.159.007-1.107.015-1.051.024c-.512.014-1.003.033-1.47.058a36.471 36.471 0 0 0-.688-.028l-.639-.014a31.576 31.576 0 0 0-.3-.002l-.566.003-.514.014-.238.01-.437.025-.384.03-.173.016-.303.035-.132.017Zm72.32 6.187h18.667c1.007 0 1.825.666 2.182 1.549l.058.158c.32.853.533 1.706.64 2.666.213 1.067.427 2.24.533 3.307l.09 1.032c.07.881.124 1.818.124 2.808a39.68 39.68 0 0 1 10.82-8.849l.593-.324c4.907-2.774 10.56-4.16 16.213-4.16.747-.107 1.387.426 1.494 1.173v21.227c0 .853-.534 1.173-1.707 1.173-3.584-.1-7.26.173-10.77.903l-.75.164c-3.093.64-6.08 1.6-8.96 2.88-2.027.96-3.947 2.24-5.44 3.946v54.4c0 1.067-.427 1.494-1.387 1.494H157.76c-.853.106-1.6-.427-1.707-1.28v-59.52c0-2.56 0-5.227-.106-8l-.064-2.08-.086-4.16c-.017-.694-.037-1.387-.064-2.08 0-2.454-.213-4.8-.426-7.254-.107-.533.213-1.066.746-1.173 0-.091.157-.104.269-.04l.051.04Z" fill="#99F"/></svg>
